X:4028
T:Down with the French
T:We Will Down With the French
R:Jig
C:Trad. (Thompson 1765)
O:England
Z:Paul Hardy's Session Tunebook 2015 (see www.paulhardy.net). Creative Commons cc by-nc-sa licenced.
M:6/8
L:1/8
Q:3/8=110
K:D
"D"a2 f a2 f|ded f3|"G"g2 f g2 f|"A7"efd cBA|"D"a2 f a2 f|ded f3|"Em"egf "A7"edc|"D"d3 D3:|
|:"A"e2 e "D"f2 d|"A" cdB A3|"D"dAd fdf|"A"a2 f e3|e2 e "D"f2 d|"A"cdB A3|"G"Bcd "A7"edc|"D"d3 D3:|

